img/manaSymbols/purpler.svg

﻿<?xml version="1.0" encoding="utf-8"?>
<svg width="600" height="600" viewBox="0 0 600 600" version="1.1" xmlns="http://www.w3.org/2000/svg" xml:space="preserve" style="fill-rule: evenodd; clip-rule: evenodd; stroke-linejoin: round; stroke-miterlimit: 2;" preserveAspectRatio="xMidYMid meet" zoomAndPan="magnify" contentScriptType="application/ecmascript" contentStyleType="text/css">
  <circle cx="300" cy="300" r="300" style="fill: rgb(171, 139, 215);" />
  <g transform="matrix(1,0,0,1,-156.29,92.5)">
    <path d="M742.7-250.4c54.3 54.3 87.9 129.3 87.9 212.2 0 165.7-134.3 300-300 300-82.8 0-157.8-33.6-212.1-87.9" style="fill: rgb(249, 170, 143); fill-rule: nonzero;" transform="matrix(1,0,0,1,-74.29,245.72)" />
    <path d="M760.4 108.4c-10.3 24.6-30.8 36.9-61.4 36.9-5.6 0-11.7.7-18.3 2.1-9.8 2.1-14.7 5-14.7 8.8 0 1.2.8 2.5 2.5 4 1.6 1.5 3 2.3 4.2 2.3-5.9 0-1.9.2 11.9.5 13.8.4 22.5.5 26 .5-20.4 11.9-54.4 17.4-102.2 16.5-15.7-.2-29.1-7.1-40.4-20.7-11-12.9-16.5-27.3-16.5-43.2 0-16.9 5.7-31.2 17-43 11.3-11.8 25.5-17.7 42.3-17.7 3.7 0 8.7.8 14.9 2.4 6.2 1.6 10.4 2.5 12.5 2.5 8.7 0 19.4-3.6 32.3-10.7s19-10.7 18.3-10.7c-2.3 24.6-10.5 41.1-24.6 49.5-10.1 5.9-15.1 11.6-15.1 17.2 0 3.5 2.1 6.3 6.3 8.4 3.3 1.6 6.9 2.4 10.9 2.4 6.1 0 12.1-3.7 17.9-11.2 5.8-7.5 8.4-14.3 7.7-20.4-.7-7-.2-15.5 1.4-25.3.5-2.8 2.2-6.3 5.1-10.4 2.9-4.1 5.6-6.6 7.9-7.6 0 2.1-.8 5.6-2.3 10.5s-2.3 8.6-2.3 10.9c0 5.2 1.4 9.1 4.2 11.9 4.2-1.6 7.9-6.9 11.2-15.8 2.8-6.8 4.4-13.3 4.9-19.6-9.8-.5-19.3-4.9-28.3-13.4-9-8.4-13.5-17.5-13.5-27.4 0-1.6.2-3.3.7-4.9 1.4 2.1 3.5 5.4 6.3 9.8 4 5.9 7 8.8 9.1 8.8 2.8 0 4.2-2.9 4.2-8.8 0-7.5-2-14.3-6-20.4-4.5-7.3-10.2-10.9-17.2-10.9-3.3 0-8.2 1.8-14.7 5.3-6.6 3.5-12.5 5.3-17.9 5.3-1.6 0-8.9-2.1-21.8-6.3 22.7-3.7 34.1-7.1 34.1-10.2 0-7.9-15.6-13.3-46.7-16.1-3-.2-8.7-.7-16.9-1.4.9-1.2 7.6-2.4 20-3.9 10.5-1.2 17.9-1.8 22.1-1.8 55.7 0 91.1 27 106 81.1 2.6-2.1 3.9-5.7 3.9-10.7 0-6.4-1.9-14.5-5.6-24.2-1.4-3.8-3.6-9.5-6.7-17.1 19.2 24.5 28.8 47.6 28.8 69.5 0 11.5-2.7 22-8.1 31.4-3.5 6.4-10.1 14.5-19.7 24.4S718 115 714.4 120.4c12.9-3.5 21.3-6.2 25.3-8.1 8.9-4 17-10 24.2-17.9 0 3.1-1.3 7.6-3.9 13.7M607.3-29.5c0 4.2-2.3 6.9-7 8.1l-9.1 1.4c-3.3 1.6-8.1 8.1-14.4 19.3-.7-3.5-1.8-8.4-3.2-14.7-2.1.2-5.6 2.1-10.5 5.6-2.1 1.6-5.5 4.1-10.2 7.4 1.4-8.4 6.1-17 14.1-25.6 8.4-9.6 16.6-14.4 24.6-14.4 10.5 0 15.8 4.3 15.8 13m61.1 32.3c0 4-2.2 7.3-6.5 10-4.3 2.7-8.6 4-12.8 4-5.6 0-10.7-3.1-15.1-9.5-5.4-7.7-10.9-12.7-16.5-15.1 1.2-1.2 2.6-1.8 4.2-1.8 2.1 0 5.7 1.6 10.7 4.9 5 3.3 8.3 4.9 9.7 4.9 1.2 0 3.1-1.6 5.8-4.9 2.7-3.3 5.7-4.9 9-4.9 7.7 0 11.6 4.1 11.6 12.3" style="fill: rgb(32, 0, 0); fill-rule: nonzero;" transform="matrix(1,0,0,1,-74.29,245.72)" />
    <path d="M-52.703 176.592c-.486-.084-2.298-.33-4.028-.545-7.018-.876-15.807-3.768-23.124-7.61-6.187-3.246-7.292-4.45-2.992-3.258 13.726 3.805 31.992-1.64 46.58-13.884 7.953-6.674 12.396-13.07 14.398-20.72 2.89-11.042 1.786-18.535-3.828-26.004-2.158-2.87-4.536-4.726-8.818-6.878-2.944-1.48-3.404-1.82-2.87-2.12.377-.21 1.526-.26 2.802-.12 6.94.764 12.7 3.824 18.424 9.79 6.27 6.534 10.745 15.45 12.162 24.222.54 3.34.457 10.03-.16 12.93-2.764 12.99-11.01 23.936-22.266 29.547-6.198 3.09-12.223 4.492-20.108 4.677-2.91.07-5.688.056-6.173-.028zM-81.63 150.64c-3.6-.272-5.225-.636-9.373-2.1-14.745-5.2-24.403-16.283-27.726-31.816-1-4.683-1.102-14.833-.2-20.014a75.808 75.808 0 0 1 7.55-22.212c3.248-6.187 4.452-7.292 3.26-2.99-3.22 11.61.112 26.466 8.965 39.978 7.095 10.827 15.772 18.18 24.4 20.67 11.476 3.314 19.558 2.276 27.242-3.5 2.87-2.158 4.726-4.536 6.878-8.818 1.515-3.012 1.816-3.413 2.134-2.844.55.983-.283 6.53-1.4 9.327-1.685 4.22-3.645 7.09-7.512 10.996-4.167 4.21-7.63 6.68-12.843 9.164-7.076 3.37-14 4.718-21.376 4.16zm92.166-8.334c.095-.533.448-2.16.784-3.616 1.4-6.054.603-15.13-2-22.754-4.634-13.578-15.35-27.458-25.687-33.27-4.794-2.695-12.937-4.487-19.15-4.215-6.598.29-11.656 2.537-16.487 7.324-2.188 2.167-3.03 3.348-4.655 6.526-1.8 3.522-2.005 3.792-2.224 2.92-.387-1.54.43-6.37 1.58-9.354 4.234-10.98 16.786-20.598 30.736-23.555 8.395-1.778 16.814-.55 25.47 3.717 16.698 8.232 25.4 25.56 23.164 46.13-1.094 10.07-5.22 21.892-10.582 30.326-.69 1.084-1.157.998-.948-.177zM-64.17 115.86c-6.167-.852-12.233-4.3-17.6-10.005-5.99-6.368-10.09-14.46-11.696-23.08-.89-4.777-.572-12.32.7-16.58 3.797-12.727 11.453-21.948 22.57-27.187 14.716-6.935 34.473-5.44 52.404 3.966 6.186 3.245 7.293 4.45 2.992 3.258-9.684-2.685-21.143-.956-32.974 4.974-11.774 5.902-22.232 15.58-26.134 24.188-1.31 2.888-2.67 8.14-3.17 12.252-.876 7.16.803 13.44 5.128 19.193 2.157 2.868 4.536 4.725 8.81 6.873 2.553 1.284 3.36 1.843 2.997 2.073-.5.318-2.06.346-4.026.075z" style="fill: rgb(33, 29, 21); fill-rule: nonzero;" transform="matrix(1.63436,0,0,1.67005,444.927,-87.0378)" />
  </g>
</svg>

<?xml version="1.0" encoding="UTF-8" standalone="no"?>
<!DOCTYPE svg PUBLIC "-//W3C//DTD SVG 1.1//EN" "http://www.w3.org/Graphics/SVG/1.1/DTD/svg11.dtd">
<svg width="600" height="600" viewBox="0 0 600 600" version="1.1" xmlns="http://www.w3.org/2000/svg" xmlns:xlink="http://www.w3.org/1999/xlink" xml:space="preserve" xmlns:serif="http://www.serif.com/" style="fill-rule:evenodd;clip-rule:evenodd;stroke-linejoin:round;stroke-miterlimit:2;">
    <circle cx="300" cy="300" r="300" style="fill:rgb(171,139,215);"/>
    <g transform="matrix(1,0,0,1,-156.29,92.5)">
        <g transform="matrix(1,0,0,1,-74.29,245.72)">
            <path d="M742.7,-250.4C797,-196.1 830.6,-121.1 830.6,-38.2C830.6,127.5 696.3,261.8 530.6,261.8C447.8,261.8 372.8,228.2 318.5,173.9" style="fill:rgb(249,170,143);fill-rule:nonzero;"/>
        </g>
        <g transform="matrix(1,0,0,1,-74.29,245.72)">
            <path d="M760.4,108.4C750.1,133 729.6,145.3 699,145.3C693.4,145.3 687.3,146 680.7,147.4C670.9,149.5 666,152.4 666,156.2C666,157.4 666.8,158.7 668.5,160.2C670.1,161.7 671.5,162.5 672.7,162.5C666.8,162.5 670.8,162.7 684.6,163C698.4,163.4 707.1,163.5 710.6,163.5C690.2,175.4 656.2,180.9 608.4,180C592.7,179.8 579.3,172.9 568,159.3C557,146.4 551.5,132 551.5,116.1C551.5,99.2 557.2,84.9 568.5,73.1C579.8,61.3 594,55.4 610.8,55.4C614.5,55.4 619.5,56.2 625.7,57.8C631.9,59.4 636.1,60.3 638.2,60.3C646.9,60.3 657.6,56.7 670.5,49.6C683.4,42.5 689.5,38.9 688.8,38.9C686.5,63.5 678.3,80 664.2,88.4C654.1,94.3 649.1,100 649.1,105.6C649.1,109.1 651.2,111.9 655.4,114C658.7,115.6 662.3,116.4 666.3,116.4C672.4,116.4 678.4,112.7 684.2,105.2C690,97.7 692.6,90.9 691.9,84.8C691.2,77.8 691.7,69.3 693.3,59.5C693.8,56.7 695.5,53.2 698.4,49.1C701.3,45 704,42.5 706.3,41.5C706.3,43.6 705.5,47.1 704,52C702.5,56.9 701.7,60.6 701.7,62.9C701.7,68.1 703.1,72 705.9,74.8C710.1,73.2 713.8,67.9 717.1,59C719.9,52.2 721.5,45.7 722,39.4C712.2,38.9 702.7,34.5 693.7,26C684.7,17.6 680.2,8.5 680.2,-1.4C680.2,-3 680.4,-4.7 680.9,-6.3C682.3,-4.2 684.4,-0.9 687.2,3.5C691.2,9.4 694.2,12.3 696.3,12.3C699.1,12.3 700.5,9.4 700.5,3.5C700.5,-4 698.5,-10.8 694.5,-16.9C690,-24.2 684.3,-27.8 677.3,-27.8C674,-27.8 669.1,-26 662.6,-22.5C656,-19 650.1,-17.2 644.7,-17.2C643.1,-17.2 635.8,-19.3 622.9,-23.5C645.6,-27.2 657,-30.6 657,-33.7C657,-41.6 641.4,-47 610.3,-49.8C607.3,-50 601.6,-50.5 593.4,-51.2C594.3,-52.4 601,-53.6 613.4,-55.1C623.9,-56.3 631.3,-56.9 635.5,-56.9C691.2,-56.9 726.6,-29.9 741.5,24.2C744.1,22.1 745.4,18.5 745.4,13.5C745.4,7.1 743.5,-1 739.8,-10.7C738.4,-14.5 736.2,-20.2 733.1,-27.8C752.3,-3.3 761.9,19.8 761.9,41.7C761.9,53.2 759.2,63.7 753.8,73.1C750.3,79.5 743.7,87.6 734.1,97.5C724.5,107.4 718,115 714.4,120.4C727.3,116.9 735.7,114.2 739.7,112.3C748.6,108.3 756.7,102.3 763.9,94.4C763.9,97.5 762.6,102 760,108.1M607.3,-29.5C607.3,-25.3 605,-22.6 600.3,-21.4L591.2,-20C587.9,-18.4 583.1,-11.9 576.8,-0.7C576.1,-4.2 575,-9.1 573.6,-15.4C571.5,-15.2 568,-13.3 563.1,-9.8C561,-8.2 557.6,-5.7 552.9,-2.4C554.3,-10.8 559,-19.4 567,-28C575.4,-37.6 583.6,-42.4 591.6,-42.4C602.1,-42.4 607.4,-38.1 607.4,-29.4M668.5,2.9C668.5,6.9 666.3,10.2 662,12.9C657.7,15.6 653.4,16.9 649.2,16.9C643.6,16.9 638.5,13.8 634.1,7.4C628.7,-0.3 623.2,-5.3 617.6,-7.7C618.8,-8.9 620.2,-9.5 621.8,-9.5C623.9,-9.5 627.5,-7.9 632.5,-4.6C637.5,-1.3 640.8,0.3 642.2,0.3C643.4,0.3 645.3,-1.3 648,-4.6C650.7,-7.9 653.7,-9.5 657,-9.5C664.7,-9.5 668.6,-5.4 668.6,2.8" style="fill:rgb(32,0,0);fill-rule:nonzero;"/>
        </g>
        <g transform="matrix(1.63436,0,0,1.67005,444.927,-87.0378)">
            <path d="M-52.703,176.592C-53.189,176.508 -55.001,176.263 -56.731,176.047C-63.748,175.171 -72.537,172.279 -79.854,168.438C-86.041,165.191 -87.146,163.987 -82.846,165.179C-69.12,168.985 -50.854,163.541 -36.265,151.296C-28.313,144.622 -23.87,138.227 -21.868,130.576C-18.979,119.534 -20.082,112.041 -25.696,104.572C-27.854,101.701 -30.232,99.846 -34.514,97.694C-37.458,96.214 -37.918,95.873 -37.383,95.574C-37.007,95.363 -35.858,95.315 -34.582,95.455C-27.641,96.218 -21.881,99.278 -16.158,105.244C-9.889,111.778 -5.413,120.693 -3.996,129.466C-3.457,132.806 -3.539,139.497 -4.156,142.395C-6.92,155.387 -15.167,166.332 -26.422,171.943C-32.62,175.033 -38.645,176.435 -46.53,176.62C-49.44,176.689 -52.218,176.676 -52.703,176.592ZM-81.631,150.64C-85.231,150.368 -86.855,150.004 -91.003,148.541C-105.748,143.34 -115.406,132.257 -118.729,116.724C-119.73,112.041 -119.832,101.891 -118.93,96.71C-117.581,88.959 -115.028,81.45 -111.379,74.498C-108.132,68.311 -106.928,67.206 -108.12,71.507C-111.34,83.117 -108.008,97.974 -99.155,111.486C-92.06,122.313 -83.383,129.665 -74.756,132.156C-63.279,135.47 -55.197,134.432 -47.513,128.656C-44.642,126.498 -42.787,124.12 -40.635,119.838C-39.12,116.826 -38.819,116.425 -38.501,116.994C-37.951,117.977 -38.783,123.524 -39.9,126.321C-41.585,130.54 -43.545,133.41 -47.412,137.316C-51.579,141.526 -55.042,143.997 -60.255,146.48C-67.331,149.85 -74.256,151.198 -81.631,150.64ZM10.536,142.306C10.631,141.773 10.984,140.146 11.32,138.69C12.721,132.636 11.923,123.561 9.321,115.936C4.686,102.358 -6.03,88.478 -16.367,82.666C-21.161,79.971 -29.304,78.179 -35.518,78.451C-42.115,78.74 -47.173,80.987 -52.004,85.774C-54.192,87.941 -55.034,89.122 -56.659,92.3C-58.459,95.822 -58.665,96.092 -58.884,95.22C-59.271,93.679 -58.455,88.851 -57.304,85.866C-53.07,74.887 -40.518,65.268 -26.568,62.311C-18.173,60.532 -9.754,61.76 -1.099,66.027C15.6,74.259 24.302,91.588 22.066,112.158C20.972,122.226 16.846,134.049 11.484,142.483C10.795,143.567 10.327,143.481 10.536,142.306ZM-64.169,115.861C-70.337,115.008 -76.403,111.559 -81.769,105.855C-87.759,99.487 -91.86,91.396 -93.466,82.775C-94.356,77.998 -94.038,70.454 -92.767,66.195C-88.969,53.468 -81.313,44.247 -70.196,39.008C-55.48,32.073 -35.723,33.568 -17.792,42.974C-11.606,46.219 -10.499,47.425 -14.8,46.232C-24.484,43.547 -35.943,45.276 -47.774,51.206C-59.548,57.108 -70.006,66.787 -73.908,75.394C-75.217,78.282 -76.577,83.533 -77.079,87.646C-77.954,94.805 -76.275,101.085 -71.95,106.839C-69.793,109.708 -67.414,111.565 -63.141,113.713C-60.587,114.997 -59.779,115.556 -60.143,115.786C-60.644,116.104 -62.204,116.132 -64.169,115.861Z" style="fill:rgb(33,29,21);fill-rule:nonzero;"/>
        </g>
    </g>
</svg>
